X:17
T:La vinca
R:---
O:Italie
C:Trad.
Z:Transcrit et/ou corrig par Michel BELLON - 2005-09-11
Z:Pour toute observation mailto:galouvielle@free.fr
M:2/4
L:1/8
K:G
P:Intro
GGG2 | AAA2 | BB AB | ccc2 |:
P:A
GG/A/ GG/A/ | GG/A/ B2 | cc/B/ A2 | BB/A/ G2 :|
P:B
d^c/d/ ed | AA A2 | d^c/d/ ed | GGG2 |
dd d2 | ee e2 | ff/f/ ef | gg g2 |]
%%footer $D   Galouvielle-MBe 2006 \nChapeloise (--)
